X: 41
T: The Lasses of Portsmouth
R: reel
M: C|
L: 1/8
Z: 2011 John Chambers <jc:trillian.mit.edu>
B: Charles & Samuel Thompson eds "Twenty Four Country Dances", London 1774, p.21 #1
K: Bb
% - - - - - - - - - - - - - - - - - - - - - - - - -
|: f2fd fdTB2 | c2cA cATF2 | (G/A/)B (B/A/)G (A/B/)c (c/B/)A | GdcB (A/B/)c/A/ F2 |
   f2fd fdTB2 | c2cA cATF2 | (G/A/)B (B/A/)G Agfe | dc/B/ d/c/B/A/ B4 :|
|: bBTB2 bBTB2 | fdTd2 fdTd2 | geTc2 fdTB2 | edcB A/B/c/A/ Fg/a/ |
   bBTB2 bBTB2 | fdTd2 fdTd2 | gecA fdBG | ce d/c/B/A/ B4 :|
% - - - - - - - - Dance description - - - - - - - -
%%begintext align
%% Turn your Part: cast off & hands 4 with the 3d
%% Cu. .|. turn again cast up & hands 4 at top :|. lead
%% thro' the 3d Cu. & cast up .|: lead thro' the top
%% cast off & Right & Left :|:
%%endtext

%%sep 1 1 500
